X:1
T:Mecklenburg, 76.76.86.86
T:Mecklenburg, 76.76.86.86
T:William Evander Penn, 1900
T:Public Domain Courtesy of the Cyber Hymnal™
C:William Evander Penn, 1900
Z:Public Domain
Z:Courtesy of the Cyber Hymnal™
%%score ( 1 2 ) ( 3 4 )
L:1/8
Q:1/4=106
M:6/8
K:Bb
V:1 treble 
V:2 treble 
V:3 bass 
V:4 bass 
V:1
 [DF] | [DB]2 [DB] [DF]2 [DF] | [EG]3 [GB]2 [GB] | [Fc]2 [Fc] [Fd]2 [Fd] | [Fc]3- [Fc]2 [Fc] | %5
 [Fd]2 [DB] ([DB][Ec])[Fd] | [Ge]3 [EG]2 [Ec] | [DB]2 [DF] (FG)[EA] | [DB]3- [DB]2 [DF] | %9
 [DF]2 [CE] [B,D]2 [DF] | [EB]2 [EG] [DF]2 [DF] | [DB]2 [DB] [FB]2 [Fd] | %12
 [Fc]3- [Fc]2 !fermata![Fd] | [DB]2 [DB] [DB]2 [DF] | [EG]2 G !fermata![Ge]2 [Gc] | %15
 .[DB]2 [DB] .[EA]2 [Ec] | [DB]3- [DB]2 |] %17
V:2
 x | x6 | x6 | x6 | x6 | x6 | x6 | x3 E2 x | x6 | x6 | x6 | x6 | x6 | x6 | x6 | x6 | x5 |] %17
V:3
 [B,,B,] | [B,,F,]2 [B,,F,] [B,,B,]2 [B,,B,] | [E,B,]3 [E,B,]2 [E,B,] | [F,A,]2 [F,A,] B,2 B, | %4
 [F,A,]3- [F,A,]2 [F,A,] | [B,,B,]2 [B,,F,] [B,,F,]2 [B,,B,] | [E,B,]3 [E,B,]2 [E,G,] | %7
 F,2 [F,B,] (A,B,)[F,C] | [B,,B,]3- [B,,B,]2 [B,,B,] | [B,,B,]2 [B,,F,] [B,,F,]2 [B,,B,] | %10
 [E,G,]2 [E,B,] [B,,B,]2 [B,,B,] | [B,,F,]2 [B,,F,] [B,,B,]2 [B,,B,] | %12
 [F,A,]3- [F,A,]2 !fermata![B,,B,] | [B,,F,]2 [B,,F,] [B,,F,]2 [B,,B,] | %14
 [E,B,]2 [E,B,] !fermata![E,B,]2 [E,B,] | .[F,B,]2 [F,B,] .[F,C]2 [F,A,] | [B,,B,]3- [B,,B,]2 |] %17
V:4
 x | x6 | x6 | x3 B,2 B, | x6 | x6 | x6 | F,2 F,2 x2 | x6 | x6 | x6 | x6 | x6 | x6 | x6 | x6 | %16
 x5 |] %17

